public/img/general/logo-dark.svg

<svg width="120" height="42" viewBox="0 0 120 42" fill="none" xmlns="http://www.w3.org/2000/svg">
<path d="M62.8655 23.8H66.8655C66.7455 24.2133 66.5721 24.6067 66.3455 24.98C66.1321 25.34 65.8588 25.66 65.5255 25.94C65.1921 26.2067 64.7988 26.42 64.3455 26.58C63.9055 26.7267 63.3988 26.8 62.8255 26.8C62.1721 26.8 61.5655 26.6867 61.0055 26.46C60.4588 26.2333 59.9788 25.9133 59.5655 25.5C59.1521 25.0733 58.8321 24.5667 58.6055 23.98C58.3788 23.3933 58.2655 22.7333 58.2655 22C58.2655 21.2667 58.3788 20.6133 58.6055 20.04C58.8455 19.4533 59.1721 18.9533 59.5855 18.54C60.0121 18.1267 60.4988 17.8133 61.0455 17.6C61.6055 17.3867 62.1988 17.28 62.8255 17.28C63.7321 17.28 64.4855 17.48 65.0855 17.88C65.6988 18.2667 66.1855 18.76 66.5455 19.36L69.0055 17.92C68.5788 17.2667 68.0655 16.7067 67.4655 16.24C66.8655 15.76 66.1788 15.3867 65.4055 15.12C64.6321 14.8533 63.7721 14.72 62.8255 14.72C61.7321 14.72 60.7255 14.8933 59.8055 15.24C58.8855 15.5867 58.0855 16.08 57.4055 16.72C56.7255 17.36 56.1988 18.1267 55.8255 19.02C55.4655 19.9133 55.2855 20.9067 55.2855 22C55.2855 23.08 55.4655 24.0733 55.8255 24.98C56.1855 25.8867 56.6988 26.6667 57.3655 27.32C58.0321 27.9733 58.8188 28.48 59.7255 28.84C60.6455 29.1867 61.6521 29.36 62.7455 29.36C63.9055 29.36 64.9321 29.1533 65.8255 28.74C66.7188 28.3267 67.4655 27.76 68.0655 27.04C68.6655 26.32 69.1121 25.4867 69.4055 24.54C69.6988 23.5933 69.8255 22.5867 69.7855 21.52H62.8655V23.8ZM71.2406 24.4C71.2406 25.3467 71.4606 26.1867 71.9006 26.92C72.354 27.64 72.9606 28.2 73.7206 28.6C74.494 29 75.3673 29.2 76.3406 29.2C77.314 29.2 78.1873 29 78.9606 28.6C79.734 28.2 80.3406 27.64 80.7806 26.92C81.234 26.1867 81.4606 25.3467 81.4606 24.4C81.4606 23.44 81.234 22.6 80.7806 21.88C80.3406 21.16 79.734 20.6 78.9606 20.2C78.1873 19.8 77.314 19.6 76.3406 19.6C75.3673 19.6 74.494 19.8 73.7206 20.2C72.9606 20.6 72.354 21.16 71.9006 21.88C71.4606 22.6 71.2406 23.44 71.2406 24.4ZM73.9006 24.4C73.9006 23.88 74.0073 23.4267 74.2206 23.04C74.4473 22.64 74.7406 22.3333 75.1006 22.12C75.4606 21.9067 75.874 21.8 76.3406 21.8C76.794 21.8 77.2006 21.9067 77.5606 22.12C77.934 22.3333 78.2273 22.64 78.4406 23.04C78.6673 23.44 78.7806 23.8933 78.7806 24.4C78.7806 24.92 78.6673 25.3733 78.4406 25.76C78.2273 26.1467 77.934 26.4533 77.5606 26.68C77.2006 26.8933 76.794 27 76.3406 27C75.874 27 75.4606 26.8933 75.1006 26.68C74.7406 26.4533 74.4473 26.1467 74.2206 25.76C74.0073 25.36 73.9006 24.9067 73.9006 24.4ZM80.2519 17.6H83.9919V29H86.8719V17.6H90.6519V15H80.2519V17.6ZM92.9948 19.8H90.4348V29H92.9948V19.8ZM95.6948 22.52L96.8748 20.3C96.7015 20.0733 96.4615 19.9 96.1548 19.78C95.8482 19.66 95.5282 19.6 95.1948 19.6C94.7015 19.6 94.2282 19.7667 93.7748 20.1C93.3348 20.4333 92.9748 20.8867 92.6948 21.46C92.4148 22.02 92.2748 22.6667 92.2748 23.4L92.9948 24.14C92.9948 23.7 93.0482 23.3267 93.1548 23.02C93.2748 22.7 93.4482 22.4533 93.6748 22.28C93.9015 22.1067 94.1748 22.02 94.4948 22.02C94.7615 22.02 94.9815 22.0667 95.1548 22.16C95.3415 22.24 95.5215 22.36 95.6948 22.52ZM98.1278 16.24C98.1278 16.6533 98.2745 17 98.5678 17.28C98.8611 17.56 99.2278 17.7 99.6678 17.7C100.108 17.7 100.474 17.56 100.768 17.28C101.074 17 101.228 16.6533 101.228 16.24C101.228 15.8133 101.074 15.46 100.768 15.18C100.474 14.9 100.108 14.76 99.6678 14.76C99.2278 14.76 98.8611 14.9 98.5678 15.18C98.2745 15.46 98.1278 15.8133 98.1278 16.24ZM98.4078 19.8V29H100.908V19.8H98.4078ZM106.218 33.4V19.8H103.618V33.4H106.218ZM113.778 24.4C113.778 23.3467 113.564 22.46 113.138 21.74C112.724 21.0067 112.178 20.4533 111.498 20.08C110.831 19.7067 110.111 19.52 109.338 19.52C108.738 19.52 108.198 19.6333 107.718 19.86C107.251 20.0867 106.851 20.4133 106.518 20.84C106.184 21.2667 105.931 21.78 105.758 22.38C105.584 22.98 105.498 23.6533 105.498 24.4C105.498 25.1467 105.584 25.82 105.758 26.42C105.931 27.02 106.184 27.5333 106.518 27.96C106.851 28.3867 107.251 28.7133 107.718 28.94C108.198 29.1533 108.738 29.26 109.338 29.26C110.111 29.26 110.831 29.08 111.498 28.72C112.178 28.3467 112.724 27.8 113.138 27.08C113.564 26.3467 113.778 25.4533 113.778 24.4ZM111.058 24.4C111.058 24.9467 110.944 25.4133 110.718 25.8C110.491 26.1733 110.191 26.46 109.818 26.66C109.444 26.86 109.031 26.96 108.578 26.96C108.298 26.96 108.018 26.9067 107.738 26.8C107.458 26.6933 107.204 26.5333 106.978 26.32C106.751 26.0933 106.564 25.82 106.418 25.5C106.284 25.18 106.218 24.8133 106.218 24.4C106.218 23.9733 106.284 23.6067 106.418 23.3C106.564 22.98 106.751 22.7067 106.978 22.48C107.204 22.2533 107.458 22.0933 107.738 22C108.018 21.8933 108.298 21.84 108.578 21.84C109.031 21.84 109.444 21.94 109.818 22.14C110.191 22.34 110.491 22.6333 110.718 23.02C110.944 23.3933 111.058 23.8533 111.058 24.4Z" fill="#051036"/>
<rect width="41.958" height="41.958" rx="18" fill="#3554D1"/>
<g clip-path="url(#clip0_316_21121)">
<path d="M29.2333 18.3092C29.2333 13.766 25.537 10.0699 20.9939 10.0699C16.4507 10.0699 12.7546 13.766 12.7546 18.3092C12.7546 20.1943 14.0768 22.8682 16.6844 26.2566C17.4651 27.271 18.2403 28.1924 18.8883 28.9313V31.2388C18.8883 31.5973 19.1789 31.8881 19.5377 31.8881H22.4502C22.8089 31.8881 23.0996 31.5973 23.0996 31.2388V28.9313C23.7476 28.1924 24.5228 27.271 25.3035 26.2566C27.9111 22.8682 29.2333 20.1943 29.2333 18.3092ZM27.9346 18.3092C27.9346 20.1136 26.2555 22.8467 24.4169 25.272H23.6014C24.5862 22.313 25.0853 19.973 25.0853 18.3092C25.0853 16.1915 24.7067 14.1902 24.0193 12.6742C23.8883 12.3856 23.7481 12.1199 23.5998 11.8769C26.1393 12.9092 27.9346 15.4033 27.9346 18.3092ZM21.8009 30.5894H20.187V29.3346H21.8009V30.5894ZM22.1614 28.0359H19.8318C19.4524 27.6025 19.0303 27.1076 18.5917 26.5709H19.2888C19.2906 26.5709 19.2925 26.5711 19.2941 26.5711C19.296 26.5711 23.3962 26.5709 23.3962 26.5709C22.9721 27.0924 22.5544 27.5858 22.1614 28.0359ZM20.9939 11.3687C21.6341 11.3687 22.3056 12.04 22.8364 13.2105C23.4491 14.5617 23.7865 16.3724 23.7865 18.3092C23.7865 19.8857 23.2492 22.2879 22.231 25.272H19.7571C18.7385 22.2876 18.2012 19.8862 18.2012 18.3092C18.2012 16.3724 18.5387 14.5617 19.1515 13.2105C19.6823 12.04 20.3538 11.3687 20.9939 11.3687ZM14.0533 18.3092C14.0533 15.4033 15.8486 12.9092 18.3881 11.8769C18.2398 12.1199 18.0995 12.3856 17.9686 12.6742C17.2811 14.1902 16.9026 16.1915 16.9026 18.3092C16.9026 19.9735 17.4015 22.3132 18.3863 25.272H17.5668C15.2678 22.2511 14.0533 19.8461 14.0533 18.3092Z" fill="white"/>
</g>
<defs>
<clipPath id="clip0_316_21121">
<rect width="21.8182" height="21.8182" fill="white" transform="translate(10.0699 10.0699)"/>
</clipPath>
</defs>
</svg>

<?xml version="1.0"?>
<svg width="120" height="42" xmlns="http://www.w3.org/2000/svg" xmlns:svg="http://www.w3.org/2000/svg">
 <defs>
  <clipPath id="clip0_316_21121">
   <rect fill="white" height="21.82" id="svg_1" transform="translate(10.0699 10.0699)" width="21.82"/>
  </clipPath>
 </defs>
 <g class="layer">
  <title>Layer 1</title>
  <rect fill="#3554D1" height="41.96" id="svg_3" rx="18" width="41.96"/>
  <g clip-path="url(#clip0_316_21121)" id="svg_4">
   <path d="m29.23,18.31c0,-4.54 -3.69,-8.24 -8.24,-8.24c-4.54,0 -8.24,3.7 -8.24,8.24c0,1.88 1.33,4.56 3.93,7.95c0.79,1.01 1.56,1.93 2.21,2.67l0,2.31c0,0.36 0.29,0.65 0.65,0.65l2.91,0c0.36,0 0.65,-0.29 0.65,-0.65l0,-2.31c0.65,-0.74 1.42,-1.66 2.2,-2.67c2.61,-3.39 3.93,-6.07 3.93,-7.95zm-1.3,0c0,1.8 -1.67,4.54 -3.51,6.96l-0.82,0c0.99,-2.96 1.49,-5.3 1.49,-6.96c0,-2.12 -0.38,-4.12 -1.07,-5.64c-0.13,-0.28 -0.27,-0.55 -0.42,-0.79c2.54,1.03 4.33,3.52 4.33,6.43zm-6.13,12.28l-1.61,0l0,-1.26l1.61,0l0,1.26zm0.36,-2.55l-2.33,0c-0.38,-0.44 -0.8,-0.93 -1.24,-1.47l0.7,0c0,0 0,0 0,0c0.01,0 4.11,0 4.11,0c-0.43,0.52 -0.85,1.02 -1.24,1.47zm-1.17,-16.67c0.64,0 1.32,0.67 1.85,1.84c0.61,1.35 0.95,3.16 0.95,5.1c0,1.58 -0.54,3.98 -1.56,6.96l-2.47,0c-1.02,-2.98 -1.56,-5.38 -1.56,-6.96c0,-1.94 0.34,-3.75 0.95,-5.1c0.53,-1.17 1.2,-1.84 1.84,-1.84zm-6.94,6.94c0,-2.91 1.8,-5.4 4.34,-6.43c-0.15,0.24 -0.29,0.51 -0.42,0.79c-0.69,1.52 -1.07,3.52 -1.07,5.64c0,1.66 0.5,4 1.49,6.96l-0.82,0c-2.3,-3.02 -3.52,-5.42 -3.52,-6.96z" fill="white" id="svg_5"/>
  </g>
 </g>
</svg>
